X: 5
T: Lougheil March, The
Z: CreadurMawnOrganig
S: https://thesession.org/tunes/6884#setting18458
R: barndance
M: 4/4
L: 1/8
K: Ador
g|eAA/AA e2dc|BGG/G/G Bdda|eAA/AA e2dc|BGAG gee:||:g|dega bgab|gdd/d/d gdde|dega bgab|gee/e/e geeg|dega bgab|gdd/d/d dega|bgae degd|BAA/A/A gee||
